src/images/svg/be-square/list-4.svg

<svg width="56" height="56" viewBox="0 0 56 56" fill="none" xmlns="http://www.w3.org/2000/svg">
<path d="M0 28C0 12.536 12.536 0 28 0C43.464 0 56 12.536 56 28C56 43.464 43.464 56 28 56C12.536 56 0 43.464 0 28Z" fill="#457B9D"/>
<path d="M28.8494 38V33.712H19.0254V29.616L27.7294 15.664H33.4254V30H36.2414V33.712H33.4254V38H28.8494ZM22.8654 30H28.8494V20.624H28.5294L22.8654 30Z" fill="white"/>
</svg>

<svg xmlns="http://www.w3.org/2000/svg" width="56" height="56" fill="none"  xmlns:v="https://vecta.io/nano"><path d="M0 28C0 12.536 12.536 0 28 0s28 12.536 28 28-12.536 28-28 28S0 43.464 0 28z" fill="#457b9d"/><path d="M28.849 38v-4.288h-9.824v-4.096l8.704-13.952h5.696V30h2.816v3.712h-2.816V38h-4.576zm-5.984-8h5.984v-9.376h-.32L22.865 30z" fill="#fff"/></svg>
